packages/foundations/assets/icons/functional/images/maps/location_pin_16.svg

<svg width="16" height="16" viewBox="0 0 16 16" fill="none" xmlns="http://www.w3.org/2000/svg">
<g clip-path="url(#clip0_186_63)">
<path fill-rule="evenodd" clip-rule="evenodd" d="M3.93652 13.6889C3.93652 13.2572 4.34287 12.8762 4.74922 12.8762H11.2508C11.708 12.8762 12.0635 13.2317 12.0635 13.6889C12.0635 14.146 11.6572 14.5016 11.2508 14.5016H4.74922C4.34287 14.5016 3.93652 14.146 3.93652 13.6889ZM8.00002 1.49841C10.2603 1.49841 12.0635 3.14917 12.0635 5.2825C12.0635 6.04449 11.8095 6.83175 11.327 7.5683L8.68577 11.6825C8.53331 11.9111 8.25398 12.0635 8.00002 12.0635C7.74605 12.0635 7.46672 11.9111 7.31426 11.6825L4.67299 7.5683C4.19049 6.83175 3.93652 6.04449 3.93652 5.2825C3.93652 3.14917 5.73974 1.49841 8.00002 1.49841ZM8.00002 3.12381C6.60315 3.12381 5.56192 4.06345 5.56192 5.25714C5.56192 5.66349 5.73974 6.14607 6.0445 6.62857L8.00002 9.6254L9.95553 6.62857C10.2603 6.14607 10.4381 5.73972 10.4381 5.25714C10.4381 4.06345 9.39688 3.12381 8.00002 3.12381ZM7.18732 5.56191C7.18732 5.10476 7.51744 4.74921 8.00002 4.74921C8.45716 4.74921 8.81271 5.07932 8.81271 5.56191C8.81271 6.01905 8.4826 6.3746 8.00002 6.3746C7.54287 6.3746 7.18732 6.04449 7.18732 5.56191Z" fill="#1A1C1F"/>
</g>
<defs>
<clipPath id="clip0_186_63">
<rect width="16" height="16" fill="white"/>
</clipPath>
</defs>
</svg>

<svg xmlns="http://www.w3.org/2000/svg" width="16" height="16" fill="none"><g clip-path="url(#a)"><path fill="#1A1C1F" fill-rule="evenodd" d="M3.937 13.689c0-.432.406-.813.812-.813h6.502c.457 0 .813.356.813.813s-.407.813-.813.813H4.749c-.406 0-.812-.356-.812-.813M8 1.499c2.26 0 4.063 1.65 4.063 3.783 0 .762-.254 1.55-.736 2.286l-2.641 4.115a.87.87 0 0 1-.686.38.87.87 0 0 1-.686-.38L4.673 7.567c-.483-.736-.736-1.524-.736-2.285C3.937 3.149 5.74 1.497 8 1.497m0 1.625c-1.397 0-2.438.94-2.438 2.133 0 .406.178.89.482 1.372L8 9.625 9.956 6.63c.304-.483.482-.89.482-1.372 0-1.194-1.041-2.133-2.438-2.133m-.813 2.438c0-.457.33-.813.813-.813.457 0 .813.33.813.813 0 .457-.33.813-.813.813a.787.787 0 0 1-.813-.813" clip-rule="evenodd"/></g><defs><clipPath id="a"><path fill="#fff" d="M0 0h16v16H0z"/></clipPath></defs></svg>
